static/img/svg/dots-horizontal.svg

<svg xmlns="http://www.w3.org/2000/svg" width="24" height="24" viewBox="0 0 24 24"><path d="M10 10h4v4h-4zM16 10h4v4h-4zM4 10h4v4H4z"/></svg>

<svg xmlns="http://www.w3.org/2000/svg" width="24" height="24" viewBox="0 0 24 24"><path d="M10 10H14V14H10zM16 10H20V14H16zM4 10H8V14H4z"/></svg>
